scalable/apps/qjackctl.svg

<?xml version="1.0" encoding="UTF-8" standalone="no"?>
<!-- Generator: Adobe Illustrator 19.0.0, SVG Export Plug-In . SVG Version: 6.00 Build 0)  -->

<svg
   xmlns:dc="http://purl.org/dc/elements/1.1/"
   xmlns:cc="http://creativecommons.org/ns#"
   xmlns:rdf="http://www.w3.org/1999/02/22-rdf-syntax-ns#"
   xmlns:svg="http://www.w3.org/2000/svg"
   xmlns="http://www.w3.org/2000/svg"
   xmlns:xlink="http://www.w3.org/1999/xlink"
   xmlns:sodipodi="http://sodipodi.sourceforge.net/DTD/sodipodi-0.dtd"
   xmlns:inkscape="http://www.inkscape.org/namespaces/inkscape"
   version="1.1"
   id="Capa_1"
   x="0px"
   y="0px"
   viewBox="0 0 48 48"
   xml:space="preserve"
   sodipodi:docname="qjackctl.svg"
   width="48"
   height="48"
   inkscape:version="0.92.3 (2405546, 2018-03-11)"><metadata
   id="metadata41"><rdf:RDF><cc:Work
       rdf:about=""><dc:format>image/svg+xml</dc:format><dc:type
         rdf:resource="http://purl.org/dc/dcmitype/StillImage" /><dc:title /></cc:Work></rdf:RDF></metadata><defs
   id="defs39"><linearGradient
     inkscape:collect="always"
     id="linearGradient860"><stop
       style="stop-color:#000000;stop-opacity:1;"
       offset="0"
       id="stop856" /><stop
       style="stop-color:#000000;stop-opacity:0;"
       offset="1"
       id="stop858" /></linearGradient><linearGradient
     inkscape:collect="always"
     xlink:href="#linearGradient860"
     id="linearGradient918"
     gradientUnits="userSpaceOnUse"
     x1="23.075842"
     y1="9.3352938"
     x2="46.123512"
     y2="33.14706" /></defs><sodipodi:namedview
   pagecolor="#ffffff"
   bordercolor="#666666"
   borderopacity="1"
   objecttolerance="10"
   gridtolerance="10"
   guidetolerance="10"
   inkscape:pageopacity="0"
   inkscape:pageshadow="2"
   inkscape:window-width="1366"
   inkscape:window-height="719"
   id="namedview37"
   showgrid="false"
   showguides="true"
   inkscape:guide-bbox="true"
   inkscape:zoom="3.7565048"
   inkscape:cx="24"
   inkscape:cy="24"
   inkscape:window-x="0"
   inkscape:window-y="25"
   inkscape:window-maximized="1"
   inkscape:current-layer="Capa_1" />


<g
   id="g6"
   transform="translate(0,-464)">
</g>
<g
   id="g8"
   transform="translate(0,-464)">
</g>
<g
   id="g10"
   transform="translate(0,-464)">
</g>
<g
   id="g12"
   transform="translate(0,-464)">
</g>
<g
   id="g14"
   transform="translate(0,-464)">
</g>
<g
   id="g16"
   transform="translate(0,-464)">
</g>
<g
   id="g18"
   transform="translate(0,-464)">
</g>
<g
   id="g20"
   transform="translate(0,-464)">
</g>
<g
   id="g22"
   transform="translate(0,-464)">
</g>
<g
   id="g24"
   transform="translate(0,-464)">
</g>
<g
   id="g26"
   transform="translate(0,-464)">
</g>
<g
   id="g28"
   transform="translate(0,-464)">
</g>
<g
   id="g30"
   transform="translate(0,-464)">
</g>
<g
   id="g32"
   transform="translate(0,-464)">
</g>
<g
   id="g34"
   transform="translate(0,-464)">
</g>
<g
   id="g933"><path
     inkscape:connector-curvature="0"
     id="path850"
     d="m 24.000976,0.3457035 c -5.833461,0 -10.522198,1.1203776 -13.935546,3.3320313 -4.101193,2.6574037 -6.269531,6.9015122 -6.269531,12.2714832 0,7.226706 5.806265,16.88549 7.585937,19.673828 2.031747,3.183082 4.250107,6.079783 6.246093,8.15625 2.542362,2.644284 4.56815,3.875 6.373047,3.875 1.804991,0 3.829009,-1.230625 6.371093,-3.875 1.995894,-2.076376 4.214349,-4.973077 6.246094,-8.15625 C 38.397835,32.8348 44.204101,23.175924 44.204101,15.949219 44.204193,10.57934 42.037899,6.3352307 37.936523,3.6777348 34.523359,1.4660811 29.834346,0.3457035 24.000976,0.3457035 Z"
     style="fill:#6c5353;stroke-width:0.0924025" /><path
     inkscape:connector-curvature="0"
     id="path854"
     d="m 26.404297,46.873047 c 0.177013,-0.09107 0.323476,-0.05314 0.505859,-0.164063 1.049389,-0.638203 2.189896,-1.6075 3.460938,-2.929687 1.995894,-2.076376 4.214348,-4.973078 6.246093,-8.15625 0.889836,-1.394123 2.786912,-4.505287 4.460938,-8.171875 0.837013,-1.833294 1.619261,-3.806143 2.191406,-5.771484 0.572145,-1.965342 0.933594,-3.923793 0.933594,-5.730469 2e-5,-1.184149 -0.147277,-2.289655 -0.355469,-3.359375 L 38.257812,7 35.490234,8.5546875 34.779297,8.625 l -0.431641,0.4316406 -0.291015,0.2929688 -0.08008,2.2265626 -2.484375,0.33789 -0.22461,0.222657 0.07422,0.945312 -7.529297,8.09375 -8.470703,8.189453 -2.429688,4.533204 z"
     style="fill:url(#linearGradient918);fill-opacity:1;stroke:none;stroke-width:1px;stroke-linecap:butt;stroke-linejoin:miter;stroke-opacity:1" /><path
     id="path897"
     d="M 38.099609 6.9824219 L 36.007812 9.0742188 L 36.703125 9.7675781 L 38.472656 8.8886719 L 38.257812 7 L 38.099609 6.9824219 z M 35.617188 9.4648438 L 35.1875 9.8945312 L 36.201172 10.910156 L 36.632812 10.478516 L 35.617188 9.4648438 z M 34.894531 10.1875 L 32.328125 12.753906 L 33.34375 13.767578 L 35.908203 11.203125 L 34.894531 10.1875 z M 32.105469 12.976562 L 12.046875 33.035156 L 12.912109 33.898438 L 16.59375 30.195312 L 17.396484 30.998047 L 19.599609 28.796875 L 19.625 28.824219 L 22.970703 27.263672 L 31.224609 19.009766 L 29.662109 17.449219 L 33.121094 13.992188 L 32.105469 12.976562 z "
     style="fill:#ffffff;stroke-width:0.0924025" /><path
     inkscape:connector-curvature="0"
     id="path895"
     d="m 36.369141,6.7832031 -0.878907,1.7714844 0.517578,0.5195313 2.091797,-2.0917969 z M 34.779297,8.625 34.347656,9.0566406 35.1875,9.8945312 35.617188,9.4648438 Z m -0.724609,0.7246094 -2.564454,2.5644526 0.837891,0.839844 2.566406,-2.566406 z m -2.789063,2.7871096 -3.455078,3.457031 -1.714844,-1.712891 -8.251953,8.251953 -1.544922,3.310547 -2.228515,2.228516 0.8125,0.814453 -3.679688,3.703125 0.84375,0.845703 20.058594,-20.058594 z"
     style="fill:#ac93a7;stroke-width:0.0924025" /><path
     inkscape:connector-curvature="0"
     id="path4588"
     d="m 24.000977,0.3457035 c -5.833461,0 -10.522199,1.1203783 -13.935547,3.3320313 -4.101193,2.657404 -6.269532,6.9015122 -6.269532,12.2714832 0,7.226706 5.806266,16.88549 7.585938,19.673828 2.031747,3.183082 4.250107,6.079783 6.246094,8.15625 2.542362,2.644284 4.56815,3.875 6.373047,3.875 1.804991,0 3.829009,-1.230625 6.371093,-3.875 1.995894,-2.076376 4.214348,-4.973077 6.246094,-8.15625 C 38.397835,32.8348 44.204102,23.175924 44.204102,15.94922 44.204194,10.57934 42.037898,6.3352309 37.936524,3.6777348 34.52336,1.4660818 29.834346,0.3457035 24.000977,0.3457035 Z m 0,0.14453126 c 2.112445,0.084873 4.119293,0.27168527 5.875,0.69140624 1.164035,0.2782756 2.252954,0.6269196 3.263671,1.0429688 1.010718,0.4160492 1.943585,0.9002116 2.796876,1.453125 1.025343,0.6643739 1.929139,1.4277032 2.708984,2.2832031 0.779844,0.8554999 1.435774,1.803713 1.96289,2.8359375 0.527119,1.0322245 0.926199,2.1492026 1.19336,3.3437496 0.267161,1.194547 0.402367,2.466124 0.402344,3.808593 0,1.806677 -0.363402,3.765127 -0.935547,5.730469 -0.572145,1.965342 -1.352441,3.93819 -2.189453,5.771484 -1.674026,3.66659 -3.571102,6.777752 -4.460938,8.171875 -2.031746,3.183173 -4.2502,6.079876 -6.246094,8.15625 -1.271042,1.322188 -2.413501,2.291486 -3.46289,2.929688 -0.319034,0.194026 -0.618451,0.306539 -0.910156,0.390625 -0.291517,-0.08404 -0.58956,-0.196919 -0.908204,-0.390625 -1.049854,-0.638215 -2.191709,-1.607546 -3.46289,-2.929688 -1.995987,-2.076467 -4.214347,-4.973168 -6.246094,-8.15625 C 12.492,34.228877 10.594924,31.117748 8.920898,27.451171 8.083886,25.617883 7.30359,23.645021 6.731445,21.679687 6.159301,19.714353 5.795899,17.755895 5.795898,15.949218 c 0,-1.342492 0.134981,-2.614034 0.402344,-3.808593 C 6.465605,10.946066 6.866188,9.8291 7.393555,8.7968754 7.920922,7.7646508 8.576433,6.8164264 9.356445,5.9609379 10.136457,5.1054494 11.040132,4.3420858 12.06543,3.6777348 c 0.853337,-0.5529133 1.786156,-1.0370759 2.796875,-1.453125 1.010719,-0.4160492 2.099654,-0.7646932 3.263672,-1.0429688 1.755679,-0.41972098 3.762539,-0.60653321 5.875,-0.69140624 z"
     style="opacity:0.2;fill:#000000;stroke-width:0.0924025" /></g></svg>

<svg xmlns="http://www.w3.org/2000/svg" xmlns:xlink="http://www.w3.org/1999/xlink" width="48" height="48"><defs><linearGradient id="a"><stop offset="0"/><stop offset="1" stop-opacity="0"/></linearGradient><linearGradient xlink:href="#a" id="b" gradientUnits="userSpaceOnUse" x1="23.08" y1="9.34" x2="46.12" y2="33.15"/></defs><path d="M24 .35c-5.83 0-10.52 1.12-13.93 3.33-4.1 2.66-6.27 6.9-6.27 12.27 0 7.23 5.8 16.88 7.58 19.67a54.48 54.48 0 0 0 6.25 8.16c2.54 2.64 4.57 3.87 6.37 3.87 1.8 0 3.83-1.23 6.37-3.87 2-2.08 4.22-4.97 6.25-8.16 1.78-2.79 7.58-12.44 7.58-19.67 0-5.37-2.16-9.61-6.26-12.27C34.52 1.47 29.84.35 24 .35z" fill="#6c5353"/><path d="M26.4 46.87c.18-.09.33-.05.51-.16 1.05-.64 2.19-1.6 3.46-2.93 2-2.08 4.22-4.97 6.25-8.16.89-1.4 2.78-4.5 4.46-8.17a43.2 43.2 0 0 0 2.19-5.77c.57-1.97.93-3.92.93-5.73 0-1.18-.14-2.29-.35-3.36L38.25 7 35.5 8.55l-.71.07-.43.44-.3.29-.07 2.23-2.49.33-.22.23.07.94-7.53 8.1-8.47 8.19-2.43 4.53z" fill="url(#b)"/><path d="M38.1 6.98L36 9.08l.7.69 1.77-.88L38.26 7l-.16-.02zm-2.48 2.48l-.43.43 1.01 1.02.43-.43-1.01-1.02zm-.73.73l-2.56 2.56 1.01 1.02 2.57-2.57-1.02-1.01zm-2.78 2.79L12.05 33.04l.86.86 3.68-3.7.8.8 2.21-2.2.02.02 3.35-1.56 8.25-8.25-1.56-1.56 3.46-3.46-1.01-1.01z" fill="#fff"/><path d="M36.37 6.78l-.88 1.77.52.52 2.09-2.09zm-1.6 1.84l-.42.44.84.83.43-.43zm-.72.73l-2.56 2.56.84.84 2.56-2.56zm-2.78 2.79l-3.46 3.45-1.71-1.7-8.26 8.24-1.54 3.31-2.23 2.23.81.82-3.68 3.7.85.85L32.1 12.98z" fill="#ac93a7"/><path d="M24 .35c-5.83 0-10.52 1.12-13.93 3.33-4.1 2.66-6.27 6.9-6.27 12.27 0 7.23 5.8 16.88 7.58 19.67a54.48 54.48 0 0 0 6.25 8.16c2.54 2.64 4.57 3.87 6.37 3.87 1.8 0 3.83-1.23 6.37-3.87 2-2.08 4.22-4.97 6.25-8.16 1.78-2.79 7.58-12.44 7.58-19.67 0-5.37-2.16-9.61-6.26-12.27C34.52 1.47 29.84.35 24 .35zm0 .14c2.11.09 4.12.27 5.88.7 1.16.27 2.25.62 3.26 1.03 1.01.42 1.94.9 2.8 1.46A12.92 12.92 0 0 1 40.6 8.8c.53 1.03.92 2.15 1.2 3.34.26 1.2.4 2.47.4 3.8 0 1.82-.37 3.77-.94 5.74a43.19 43.19 0 0 1-2.2 5.77 69.59 69.59 0 0 1-4.45 8.17 54.47 54.47 0 0 1-6.25 8.16 17.98 17.98 0 0 1-3.46 2.93c-.32.2-.62.3-.91.39-.3-.08-.6-.2-.9-.4-1.06-.63-2.2-1.6-3.47-2.92-2-2.08-4.22-4.97-6.25-8.16a69.6 69.6 0 0 1-4.46-8.17 43.19 43.19 0 0 1-2.19-5.77 20.93 20.93 0 0 1-.93-5.73c0-1.34.13-2.61.4-3.8.27-1.2.67-2.32 1.2-3.35a12.92 12.92 0 0 1 4.67-5.12 17.1 17.1 0 0 1 2.8-1.46c1-.41 2.1-.76 3.26-1.04C19.88.76 21.89.58 24 .5z" opacity=".2"/></svg>
